X:1
T:Title
%%score { ( 1 3 ) | ( 2 4 ) }
L:1/8
Q:1/4=100
M:4/4
K:Bb
V:1 treble nm="Grand Piano"
V:3 treble 
V:2 bass 
V:4 bass 
V:1
 B2 F2 D2 F2 | B>A B>c [Fd]2 [DB]2 | [Ae]2 c2 A2 F2 | B>A B>c [Fd]4 | B2 F2 D2 F2 | %5
w: R.~E.~Hudson * * *|||||
 B>A B>c [Fd]2 [DBf]2 | [Bd]2 [Bf]2 [Bf]>[Fd] [FB]>[Gc] | [Fd]2 [Ec]2 [DB]4 | d6 z2 | e6 z2 | %10
w: |||||
 [DF]>[DF] [DF]>[DF] [DB]2 [Fd]2 |[M:9/8][K:bass] c6- c z z |[M:4/4][K:treble] d6 z2 | e6 z2 | %14
w: ||||
 FGAB d2 c2 |[M:9/8] B6- B z z |] %16
w: ||
V:2
 B,2 F,2 D,2 F,2 | [F,D]>[F,C] [F,D]>[F,B,E] [B,,B,]2 [B,,F,]2 | F,2 [F,F]2 [F,C]2 [F,C]2 | %3
 [F,D]>[F,C] [F,D]>[F,A,E] [B,,B,]4 | B,2 F,2 D,2 F,2 | %5
 [F,D]>[F,C] [F,D]>[F,A,E] [B,,B,]2 [B,,B,]2 | [A,F]2 [B,D]2[K:bass] [B,,D]>[B,,A,] [D,B,]>[E,B,] | %7
 [F,B,]2 [F,A,]2 [B,,F,]4 | [B,,B,]2 [B,,B,]2 [B,,B,][B,,B,][B,,B,][B,,B,] | %9
 [E,B,]2 [E,B,]2 [E,B,][E,B,E][E,B,E][E,B,E] | [B,,B,]>[B,,B,] [B,,B,]>[B,,B,] [B,,F,]2 [B,,B,]2 | %11
[M:9/8][K:treble] [A,F]6- [A,F] z z | %12
[M:4/4][K:bass] [B,,B,]2 [B,,B,]2 [B,,B,][B,,B,][B,,B,][B,,B,] | %13
 [E,B,]2 [E,B,]2 [E,B,][E,B,E][E,B,E][E,B,E] | [F,A,C][F,B,C][F,CF][F,DF] [F,B,F]2 [F,A,E]2 | %15
[M:9/8] [B,,F,]>[B,,F,][E,B,] [E,G,] [B,,F,]2- [B,,F,] z z |] %16
V:3
 x8 | x8 | x8 | x8 | x8 | x8 | x8 | x8 | F2 F2 F[DF][EG][DF] | G2 G2 GGAG | x8 | %11
[M:9/8][K:bass] z F,E, D, C,2- C, z z |[M:4/4][K:treble] F2 F2 F[DF][EG][DF] | G2 G2 GGAG | x8 | %15
[M:9/8] D>DG E D2- D z z |] %16
V:4
 x8 | x8 | x8 | x8 | x8 | x8 | x4[K:bass] x4 | x8 | x8 | x8 | x8 |[M:9/8][K:treble] .F,3 z3 z3 | %12
[M:4/4][K:bass] x8 | x8 | x8 |[M:9/8] x9 |] %16

